svg/music_clef_bass.svg

<svg xmlns="http://www.w3.org/2000/svg" viewBox="0 0 24 24"><path d="M18.5 5A1.5 1.5 0 1 1 17 6.5 1.5 1.5 0 0 1 18.5 5m0 6a1.5 1.5 0 1 1-1.5 1.5 1.5 1.5 0 0 1 1.5-1.5M10 4a5 5 0 0 0-5 5v1a2 2 0 1 0 2.18-2A3 3 0 0 1 10 6a4 4 0 0 1 4 4c0 3.59-2.23 6.19-7 8.2l.76 1.84C13.31 17.72 16 14.43 16 10a6 6 0 0 0-6-6"/></svg>

<?xml version="1.0" encoding="UTF-8"?><!DOCTYPE svg PUBLIC "-//W3C//DTD SVG 1.1//EN" "http://www.w3.org/Graphics/SVG/1.1/DTD/svg11.dtd"><svg xmlns="http://www.w3.org/2000/svg" xmlns:xlink="http://www.w3.org/1999/xlink" version="1.1" id="mdi-music-clef-bass" width="24" height="24" viewBox="0 0 24 24"><path d="M18.5 5A1.5 1.5 0 1 1 17 6.5A1.5 1.5 0 0 1 18.5 5M18.5 11A1.5 1.5 0 1 1 17 12.5A1.5 1.5 0 0 1 18.5 11M10 4A5 5 0 0 0 5 9V10A2 2 0 1 0 7.18 8A3 3 0 0 1 10 6A4 4 0 0 1 14 10C14 13.59 11.77 16.19 7 18.2L7.76 20.04C13.31 17.72 16 14.43 16 10A6 6 0 0 0 10 4Z" /></svg>
